images/continents/europe/leagues/bundesliga/clubs/wolfsburg.svg

<svg xmlns="http://www.w3.org/2000/svg" xmlns:xlink="http://www.w3.org/1999/xlink" width="1080" zoomAndPan="magnify" viewBox="0 0 810 809.999993" height="1080" preserveAspectRatio="xMidYMid meet" version="1.0"><path fill="#ffffff" d="M 809.558594 405.71875 C 809.558594 628.726562 628.390625 809.558594 405.007812 809.558594 C 181.625 809.558594 0.457031 628.722656 0.457031 405.71875 C 0.457031 182.714844 181.527344 0.457031 405.007812 0.457031 C 628.488281 0.457031 809.558594 161.945312 809.558594 405.71875 Z M 809.558594 405.71875 " fill-opacity="1" fill-rule="nonzero"/><path fill="#64b42d" d="M 7.648438 405.257812 C 15.585938 158.929688 185.191406 58.503906 296.554688 23.53125 C 347.453125 7.539062 392.035156 7.007812 391.847656 12.742188 C 391.675781 17.796875 353.496094 13.589844 299.441406 33.0625 C 205.207031 67.070312 71.789062 151.496094 63.671875 367.691406 C 63.671875 566.496094 225.226562 727.601562 424.542969 727.601562 C 623.863281 727.601562 785.429688 566.480469 785.429688 367.691406 C 785.933594 325.207031 778.238281 291.59375 768.609375 262.511719 C 751.707031 211.417969 729.890625 187.75 739.355469 187.523438 C 745.847656 187.40625 765.515625 227.53125 779.199219 264.957031 C 795.140625 308.519531 802.464844 348.113281 802.28125 405.195312 C 802.28125 624.097656 624.375 801.515625 404.914062 801.515625 C 185.453125 801.515625 7.632812 624.167969 7.632812 405.265625 Z M 7.648438 405.257812 " fill-opacity="1" fill-rule="nonzero"/><path fill="#64b42d" d="M 365.445312 280.503906 C 365.445312 210.03125 481.234375 216.675781 481.234375 216.675781 L 481.234375 468.039062 C 481.234375 485.597656 492.367188 496.171875 512.394531 496.171875 C 544.371094 496.171875 542.179688 468.039062 542.179688 468.039062 C 542.179688 485.597656 542.078125 285.394531 542.078125 209.492188 C 542.078125 146.371094 657.152344 146.371094 657.152344 146.371094 L 657.152344 480.894531 L 656.65625 501.667969 C 646.832031 564.816406 591.992188 613.117188 527.210938 613.117188 C 484.632812 613.117188 446.875 592.28125 423.175781 560.078125 C 399.480469 592.273438 361.683594 613.117188 319.171875 613.117188 C 254.378906 613.117188 200.65625 564.816406 190.839844 501.644531 L 189.285156 480.867188 C 189.285156 480.867188 189.148438 296.390625 189.148438 209.457031 C 189.148438 146.335938 304.347656 146.335938 304.347656 146.335938 L 304.347656 468.066406 C 304.347656 485.832031 316.988281 496.132812 334.160156 496.132812 C 351.121094 496.132812 365.625 485.347656 365.625 468.066406 C 365.625 468.066406 365.460938 339.664062 365.460938 280.46875 L 365.445312 280.492188 Z M 365.445312 280.503906 " fill-opacity="1" fill-rule="nonzero"/></svg>

<svg xmlns="http://www.w3.org/2000/svg" width="1080" viewBox="0 0 810 810" height="1080" version="1.0"><path fill="#fff" d="M809.559 405.719c0 223.008-181.168 403.84-404.551 403.84C181.625 809.559.457 628.723.457 405.719.457 182.715 181.527.457 405.007.457c223.481 0 404.552 161.488 404.552 405.262Zm0 0"/><path fill="#64b42d" d="M7.648 405.258C15.586 158.93 185.191 58.504 296.555 23.53c50.898-15.992 95.48-16.523 95.293-10.789-.172 5.055-38.352.848-92.407 20.32C205.207 67.07 71.79 151.496 63.671 367.692c0 198.804 161.556 359.91 360.872 359.91 199.32 0 360.887-161.122 360.887-359.91.504-42.485-7.192-76.098-16.82-105.18-16.903-51.094-38.72-74.762-29.255-74.989 6.493-.117 26.16 40.008 39.844 77.434 15.942 43.563 23.266 83.156 23.082 140.238 0 218.903-177.906 396.32-397.367 396.32-219.46 0-397.281-177.347-397.281-396.25Zm0 0"/><path fill="#64b42d" d="M365.445 280.504c0-70.473 115.79-63.828 115.79-63.828v251.363c0 17.559 11.132 28.133 31.16 28.133 31.976 0 29.785-28.133 29.785-28.133 0 17.559-.102-182.644-.102-258.547 0-63.12 115.074-63.12 115.074-63.12v334.523l-.496 20.773c-9.824 63.148-64.664 111.45-129.445 111.45-42.578 0-80.336-20.837-104.035-53.04-23.696 32.195-61.492 53.04-104.004 53.04-64.793 0-118.516-48.302-128.332-111.473l-1.555-20.778s-.137-184.476-.137-271.41c0-63.121 115.2-63.121 115.2-63.121v321.73c0 17.766 12.64 28.067 29.812 28.067 16.961 0 31.465-10.785 31.465-28.067 0 0-.164-128.402-.164-187.597l-.016.023Zm0 0"/></svg>
